X: 17891
T: Hose A
R: polka
M: 2/4
K: Amajor
K: F#min
|:F>c BF|AF EF|F>c BF|fe cB|
F>c BF|AF EF|CF AD|FA EB:|
|:F>f ec|ec BG|F>f fa|gf ec|
F>f ec|ec BG|(3F/G/A/B GE|cB GE:|

